accounts/applications_2.svg

<svg xmlns="http://www.w3.org/2000/svg" viewBox="0 0 16 16"><defs><style>.cls-1{fill:#010101;fill-rule:evenodd}</style></defs><title>applications_2</title><path class="cls-1" d="M6.647 6.841H9.21V9.4H6.647zm-5.125 0h2.563V9.4H1.522zm10.25 0h2.562V9.4h-2.562zm0 5.125h2.562v2.562h-2.562zm-5.125 0H9.21v2.562H6.647zm-5.125 0h2.563v2.562H1.522zm0-10.25h2.563v2.562H1.522zm5.125 0H9.21v2.562H6.647zm5.125 0h2.562v2.562h-2.562z" id="Layer_1" data-name="Layer 1"/></svg>

<svg xmlns="http://www.w3.org/2000/svg" viewBox="0 0 16 16"><defs><style>.cls-1{fill:#010101;fill-rule:evenodd;}</style></defs><title>applications_2</title><g id="Layer_1" data-name="Layer 1"><path class="cls-1" d="M6.647,6.841H9.21V9.4H6.647Zm-5.125,0H4.085V9.4H1.522Zm10.25,0h2.562V9.4H11.772Zm0,5.125h2.562v2.562H11.772Zm-5.125,0H9.21v2.562H6.647Zm-5.125,0H4.085v2.562H1.522Zm0-10.25H4.085V4.278H1.522Zm5.125,0H9.21V4.278H6.647Zm5.125,0h2.562V4.278H11.772Z"/></g></svg>
